Lightroom_Presets/Adobe/Lightroom preset pack_Basic/Landscape/Eatern Sierra.lrtemplate
s = {
	id = "BB226B9F-D78A-40D6-A919-C7DBB00EC115",
	internalName = "Eatern Sierra",
	title = "Eatern Sierra",
	type = "Develop",
	value = {
		settings = {
			AutoLateralCA = 0,
			Blacks2012 = -30,
			BlueHue = 0,
			BlueSaturation = 0,
			CameraProfile = "Adobe Standard",
			ChromaticAberrationB = 0,
			ChromaticAberrationR = 0,
			Clarity2012 = 23,
			ColorNoiseReduction = 25,
			ColorNoiseReductionDetail = 50,
			ColorNoiseReductionSmoothness = 50,
			Contrast2012 = 25,
			ConvertToGrayscale = false,
			CropConstrainToWarp = 0,
			Defringe = 0,
			DefringeGreenAmount = 0,
			DefringeGreenHueHi = 60,
			DefringeGreenHueLo = 40,
			DefringePurpleAmount = 0,
			DefringePurpleHueHi = 70,
			DefringePurpleHueLo = 30,
			Dehaze = 0,
			EnableCalibration = true,
			EnableColorAdjustments = true,
			EnableDetail = true,
			EnableEffects = true,
			EnableLensCorrections = true,
			EnableSplitToning = true,
			Exposure2012 = -0.1,
			GrainAmount = 0,
			GrainFrequency = 40,
			GrainSize = 30,
			GreenHue = 5,
			GreenSaturation = 0,
			Highlights2012 = 21,
			HueAdjustmentAqua = 15,
			HueAdjustmentBlue = -5,
			HueAdjustmentGreen = 18,
			HueAdjustmentMagenta = 15,
			HueAdjustmentOrange = 5,
			HueAdjustmentPurple = 0,
			HueAdjustmentRed = 10,
			HueAdjustmentYellow = 0,
			LensManualDistortionAmount = 0,
			LuminanceAdjustmentAqua = 20,
			LuminanceAdjustmentBlue = -15,
			LuminanceAdjustmentGreen = -20,
			LuminanceAdjustmentMagenta = 10,
			LuminanceAdjustmentOrange = -5,
			LuminanceAdjustmentPurple = 15,
			LuminanceAdjustmentRed = 0,
			LuminanceAdjustmentYellow = -15,
			LuminanceNoiseReductionContrast = 0,
			LuminanceNoiseReductionDetail = 50,
			LuminanceSmoothing = 0,
			ParametricDarks = 0,
			ParametricHighlightSplit = 75,
			ParametricHighlights = 0,
			ParametricLights = 0,
			ParametricMidtoneSplit = 50,
			ParametricShadowSplit = 25,
			ParametricShadows = 0,
			PostCropVignetteAmount = 0,
			PostCropVignetteFeather = 50,
			PostCropVignetteHighlightContrast = 0,
			PostCropVignetteMidpoint = 50,
			PostCropVignetteRoundness = 0,
			PostCropVignetteStyle = 1,
			ProcessVersion = "6.7",
			RedHue = 5,
			RedSaturation = -5,
			Saturation = -38,
			SaturationAdjustmentAqua = -15,
			SaturationAdjustmentBlue = -10,
			SaturationAdjustmentGreen = -30,
			SaturationAdjustmentMagenta = -20,
			SaturationAdjustmentOrange = 0,
			SaturationAdjustmentPurple = -25,
			SaturationAdjustmentRed = -5,
			SaturationAdjustmentYellow = -15,
			ShadowTint = -2,
			Shadows2012 = 61,
			SharpenDetail = 25,
			SharpenEdgeMasking = 0,
			SharpenRadius = 1,
			Sharpness = 62,
			SplitToningBalance = 0,
			SplitToningHighlightHue = 50,
			SplitToningHighlightSaturation = 3,
			SplitToningShadowHue = 222,
			SplitToningShadowSaturation = 0,
			ToneCurveName2012 = "Custom",
			ToneCurvePV2012 = {
				0,
				0,
				32,
				30,
				120,
				123,
				191,
				194,
				255,
				251,
			},
			ToneCurvePV2012Blue = {
				0,
				0,
				29,
				20,
				116,
				134,
				181,
				196,
				255,
				255,
			},
			ToneCurvePV2012Green = {
				0,
				0,
				28,
				21,
				116,
				133,
				181,
				196,
				255,
				255,
			},
			ToneCurvePV2012Red = {
				0,
				0,
				59,
				54,
				116,
				132,
				181,
				196,
				255,
				255,
			},
			Vibrance = 0,
			VignetteAmount = 0,
			VignetteMidpoint = 50,
			WhiteBalance = "As Shot",
			Whites2012 = -10,
		},
		uuid = "34A56BE3-84DC-48AE-A55A-459B20EE47E6",
	},
	version = 0,
}
