Lightroom_Presets/Adobe/Lightroom preset pack_Basic/Black and white/rusty blade.xmp
<x:xmpmeta xmlns:x="adobe:ns:meta/" x:xmptk="Adobe XMP Core 5.6-c140 79.160451, 2017/05/06-01:08:21        ">
 <rdf:RDF xmlns:rdf="http://www.w3.org/1999/02/22-rdf-syntax-ns#">
  <rdf:Description rdf:about=""
    xmlns:crs="http://ns.adobe.com/camera-raw-settings/1.0/"
   crs:PresetType="Normal"
   crs:Cluster="Adobe Free Presets"
   crs:UUID="DDC1B2C07FFF40C9970984A0CB4F0C91"
   crs:SupportsAmount="False"
   crs:SupportsColor="True"
   crs:SupportsMonochrome="True"
   crs:SupportsHighDynamicRange="True"
   crs:SupportsNormalDynamicRange="True"
   crs:SupportsSceneReferred="True"
   crs:SupportsOutputReferred="True"
   crs:CameraModelRestriction=""
   crs:Copyright=""
   crs:ContactInfo=""
   crs:Version="10.4"
   crs:ProcessVersion="10.0"
   crs:WhiteBalance="Custom"
   crs:Temperature="4581"
   crs:Tint="+8"
   crs:Sharpness="0"
   crs:LuminanceSmoothing="0"
   crs:ColorNoiseReduction="25"
   crs:VignetteAmount="-44"
   crs:VignetteMidpoint="5"
   crs:ShadowTint="0"
   crs:RedHue="0"
   crs:RedSaturation="0"
   crs:GreenHue="0"
   crs:GreenSaturation="0"
   crs:BlueHue="0"
   crs:BlueSaturation="0"
   crs:GrayMixerRed="-14"
   crs:GrayMixerOrange="+10"
   crs:GrayMixerYellow="0"
   crs:GrayMixerGreen="0"
   crs:GrayMixerAqua="0"
   crs:GrayMixerBlue="+44"
   crs:GrayMixerPurple="0"
   crs:GrayMixerMagenta="+24"
   crs:SplitToningShadowHue="0"
   crs:SplitToningShadowSaturation="0"
   crs:SplitToningHighlightHue="0"
   crs:SplitToningHighlightSaturation="0"
   crs:SplitToningBalance="0"
   crs:ParametricShadows="0"
   crs:ParametricDarks="-14"
   crs:ParametricLights="+6"
   crs:ParametricHighlights="0"
   crs:ParametricShadowSplit="25"
   crs:ParametricMidtoneSplit="50"
   crs:ParametricHighlightSplit="75"
   crs:SharpenRadius="+1.0"
   crs:SharpenDetail="25"
   crs:SharpenEdgeMasking="0"
   crs:PostCropVignetteAmount="-21"
   crs:PostCropVignetteMidpoint="50"
   crs:PostCropVignetteFeather="50"
   crs:PostCropVignetteRoundness="0"
   crs:PostCropVignetteStyle="1"
   crs:PostCropVignetteHighlightContrast="0"
   crs:GrainAmount="64"
   crs:GrainSize="28"
   crs:GrainFrequency="73"
   crs:ColorNoiseReductionDetail="50"
   crs:ColorNoiseReductionSmoothness="50"
   crs:LensManualDistortionAmount="0"
   crs:AutoLateralCA="0"
   crs:Exposure2012="-0.05"
   crs:Contrast2012="+28"
   crs:Highlights2012="-42"
   crs:Shadows2012="+34"
   crs:Whites2012="0"
   crs:Blacks2012="+2"
   crs:Clarity2012="+25"
   crs:DefringePurpleAmount="0"
   crs:DefringePurpleHueLo="30"
   crs:DefringePurpleHueHi="70"
   crs:DefringeGreenAmount="0"
   crs:DefringeGreenHueLo="40"
   crs:DefringeGreenHueHi="60"
   crs:Dehaze="0"
   crs:OverrideLookVignette="True"
   crs:ToneCurveName2012="Custom"
   crs:CameraProfile="Default Monochrome"
   crs:ConvertToGrayscale="True"
   crs:HasSettings="True">
   <crs:Name>
    <rdf:Alt>
     <rdf:li xml:lang="x-default">rusty blade</rdf:li>
    </rdf:Alt>
   </crs:Name>
   <crs:ShortName>
    <rdf:Alt>
     <rdf:li xml:lang="x-default"/>
    </rdf:Alt>
   </crs:ShortName>
   <crs:SortName>
    <rdf:Alt>
     <rdf:li xml:lang="x-default"/>
    </rdf:Alt>
   </crs:SortName>
   <crs:Group>
    <rdf:Alt>
     <rdf:li xml:lang="x-default">greg noire's b&amp;w ninja pack</rdf:li>
    </rdf:Alt>
   </crs:Group>
   <crs:Description>
    <rdf:Alt>
     <rdf:li xml:lang="x-default"/>
    </rdf:Alt>
   </crs:Description>
   <crs:ToneCurvePV2012>
    <rdf:Seq>
     <rdf:li>0, 0</rdf:li>
     <rdf:li>72, 59</rdf:li>
     <rdf:li>159, 160</rdf:li>
     <rdf:li>255, 255</rdf:li>
    </rdf:Seq>
   </crs:ToneCurvePV2012>
   <crs:ToneCurvePV2012Red>
    <rdf:Seq>
     <rdf:li>0, 0</rdf:li>
     <rdf:li>255, 255</rdf:li>
    </rdf:Seq>
   </crs:ToneCurvePV2012Red>
   <crs:ToneCurvePV2012Green>
    <rdf:Seq>
     <rdf:li>0, 0</rdf:li>
     <rdf:li>255, 255</rdf:li>
    </rdf:Seq>
   </crs:ToneCurvePV2012Green>
   <crs:ToneCurvePV2012Blue>
    <rdf:Seq>
     <rdf:li>0, 0</rdf:li>
     <rdf:li>255, 255</rdf:li>
    </rdf:Seq>
   </crs:ToneCurvePV2012Blue>
  </rdf:Description>
 </rdf:RDF>
</x:xmpmeta>
